; generated by PrusaSlicer 2.2.0 on 2020-11-17 at 16:05:33 UTC

; 

; external perimeters extrusion width = 0.45mm
; perimeters extrusion width = 0.45mm
; infill extrusion width = 0.45mm
; solid infill extrusion width = 0.45mm
; top infill extrusion width = 0.40mm
; first layer extrusion width = 0.42mm

M73 P0 R59
M73 Q0 S59
M201 X1000 Y1000 Z200 E5000 ; sets maximum accelerations, mm/sec^2
M203 X200 Y200 Z12 E120 ; sets maximum feedrates, mm/sec
M204 P1250 R1250 T1250 ; sets acceleration (P, T) and retract acceleration (R), mm/sec^2
M205 X8.00 Y8.00 Z0.40 E4.50 ; sets the jerk limits, mm/sec
M205 S0 T0 ; sets the minimum extruding and travel feed rate, mm/sec
M107
M862.3 P "MK3S" ; printer model check
M862.1 P0.4 ; nozzle diameter check
M115 U3.9.0 ; tell printer latest fw version
G90 ; use absolute coordinates
M83 ; extruder relative mode
M104 S215 ; set extruder temp
M140 S60 ; set bed temp
M190 S60 ; wait for bed temp
M109 S215 ; wait for extruder temp
G28 W ; home all without mesh bed level
G80 ; mesh bed leveling
G1 Y-3.0 F1000.0 ; go outside print area
G92 E0.0
G1 X60.0 E9.0 F1000.0 ; intro line
M73 Q0 S59
M73 P0 R59
G1 X100.0 E12.5 F1000.0 ; intro line
G92 E0.0
M221 S95
G21 ; set units to millimeters
G90 ; use absolute coordinates
M83 ; use relative distances for extrusion
M900 K0.06 ; Filament gcode LA 1.5
M900 K30 ; Filament gcode LA 1.0
;BEFORE_LAYER_CHANGE
G92 E0.0
;0.2


G1 E-0.80000 F2100.00000
G1 Z0.600 F10800.000
;AFTER_LAYER_CHANGE
;0.2
G1 X73.379 Y78.261
G1 Z0.200
G1 E0.80000 F2100.00000
M204 S1000
G1 F1200.000
G1 X73.896 Y77.895 E0.01989
G1 X74.429 Y77.692 E0.01787
G1 X74.995 Y77.623 E0.01787
G1 X175.004 Y77.623 E3.13570
G1 X175.902 Y77.801 E0.02872
G1 X176.664 Y78.303 E0.02860
G1 X177.182 Y79.058 E0.02872
G1 X177.377 Y79.953 E0.02872
G1 X177.376 Y130.057 E1.57097
G1 X177.278 Y130.680 E0.01977
G1 X177.019 Y131.255 E0.01977
G1 X176.618 Y131.741 E0.01977
G1 X176.104 Y132.105 E0.01977
G1 X175.571 Y132.308 E0.01787
G1 X175.005 Y132.377 E0.01787
G1 X74.977 Y132.377 E3.13630
G1 X74.346 Y132.285 E0.02000
G1 X73.762 Y132.029 E0.02000
G1 X73.267 Y131.627 E0.02000
G1 X72.895 Y131.104 E0.02012
G1 X72.693 Y130.574 E0.01775
G1 X72.623 Y130.013 E0.01775
G1 X72.623 Y79.954 E1.56954
G1 X72.719 Y79.331 E0.01977
G1 X72.977 Y78.752 E0.01989
G1 X73.341 Y78.308 E0.01800
G1 F8640.000
G1 X73.896 Y77.895 E-0.15984
G1 X74.429 Y77.692 E-0.13161
G1 X74.995 Y77.623 E-0.13161
G1 X76.454 Y77.623 E-0.33694
G1 E-0.04000 F2100.00000
G1 Z0.800 F10800.000
G1 X123.213 Y94.213
G1 Z0.200
G1 E0.80000 F2100.00000
G1 F1200.000
G1 X126.787 Y94.213 E0.11207
G1 X126.787 Y115.787 E0.67644
G1 X123.213 Y115.787 E0.11207
G1 X123.213 Y94.273 E0.67456
G1 X123.590 Y94.590 F10800.000
G1 F1200.000
G1 X126.410 Y94.590 E0.08842
G1 X126.410 Y115.410 E0.65280
G1 X123.590 Y115.410 E0.08842
G1 X123.590 Y94.650 E0.65092
G1 X123.572 Y94.190 F10800.000
G1 F8640.000
G1 X126.410 Y94.590 E-0.65129
G1 X126.410 Y95.061 E-0.10871
G1 E-0.04000 F2100.00000
G1 Z0.800 F10800.000
G1 X118.213 Y94.213
G1 Z0.200
G1 E0.80000 F2100.00000
G1 F1200.000
G1 X121.787 Y94.213 E0.11207
G1 X121.787 Y115.787 E0.67644
G1 X118.213 Y115.787 E0.11207
G1 X118.213 Y94.273 E0.67456
G1 X118.590 Y94.590 F10800.000
G1 F1200.000
G1 X121.410 Y94.590 E0.08842
G1 X121.410 Y115.410 E0.65280
G1 X118.590 Y115.410 E0.08842
G1 X118.590 Y94.650 E0.65092
G1 X118.572 Y94.190 F10800.000
G1 F8640.000
G1 X121.410 Y94.590 E-0.65129
G1 X121.410 Y95.061 E-0.10871
G1 E-0.04000 F2100.00000
G1 Z0.800 F10800.000
G1 X113.213 Y94.213
G1 Z0.200
G1 E0.80000 F2100.00000
G1 F1200.000
G1 X116.787 Y94.213 E0.11207
G1 X116.787 Y115.787 E0.67644
G1 X113.213 Y115.787 E0.11207
G1 X113.213 Y94.273 E0.67456
G1 X113.590 Y94.590 F10800.000
G1 F1200.000
G1 X116.410 Y94.590 E0.08842
G1 X116.410 Y115.410 E0.65280
G1 X113.590 Y115.410 E0.08842
G1 X113.590 Y94.650 E0.65092
G1 X113.572 Y94.190 F10800.000
G1 F8640.000
G1 X116.410 Y94.590 E-0.65129
G1 X116.410 Y95.061 E-0.10871
G1 E-0.04000 F2100.00000
G1 Z0.800 F10800.000
G1 X108.213 Y94.213
G1 Z0.200
G1 E0.80000 F2100.00000
G1 F1200.000
G1 X111.787 Y94.213 E0.11207
G1 X111.787 Y115.787 E0.67644
G1 X108.213 Y115.787 E0.11207
G1 X108.213 Y94.273 E0.67456
G1 X108.590 Y94.590 F10800.000
G1 F1200.000
G1 X111.410 Y94.590 E0.08842
G1 X111.410 Y115.410 E0.65280
G1 X108.590 Y115.410 E0.08842
G1 X108.590 Y94.650 E0.65092
G1 X108.572 Y94.190 F10800.000
G1 F8640.000
G1 X111.410 Y94.590 E-0.65129
G1 X111.410 Y95.061 E-0.10871
G1 E-0.04000 F2100.00000
G1 Z0.800 F10800.000
G1 X103.213 Y94.213
G1 Z0.200
G1 E0.80000 F2100.00000
G1 F1200.000
G1 X106.787 Y94.213 E0.11207
G1 X106.787 Y115.787 E0.67644
G1 X103.213 Y115.787 E0.11207
G1 X103.213 Y94.273 E0.67456
G1 X103.590 Y94.590 F10800.000
G1 F1200.000
G1 X106.410 Y94.590 E0.08842
G1 X106.410 Y115.410 E0.65280
G1 X103.590 Y115.410 E0.08842
G1 X103.590 Y94.650 E0.65092
G1 X103.572 Y94.190 F10800.000
G1 F8640.000
G1 X106.410 Y94.590 E-0.65129
G1 X106.410 Y95.061 E-0.10871
G1 E-0.04000 F2100.00000
G1 Z0.800 F10800.000
G1 X98.213 Y94.213
G1 Z0.200
G1 E0.80000 F2100.00000
G1 F1200.000
G1 X101.787 Y94.213 E0.11207
G1 X101.787 Y115.787 E0.67644
G1 X98.213 Y115.787 E0.11207
G1 X98.213 Y94.273 E0.67456
G1 X98.590 Y94.590 F10800.000
G1 F1200.000
G1 X101.410 Y94.590 E0.08842
G1 X101.410 Y115.410 E0.65280
G1 X98.590 Y115.410 E0.08842
G1 X98.590 Y94.650 E0.65092
G1 X98.572 Y94.190 F10800.000
G1 F8640.000
G1 X101.410 Y94.590 E-0.65129
G1 X101.410 Y95.061 E-0.10871
G1 E-0.04000 F2100.00000
G1 Z0.800 F10800.000
G1 X93.213 Y94.213
G1 Z0.200
G1 E0.80000 F2100.00000
G1 F1200.000
G1 X96.787 Y94.213 E0.11207
G1 X96.787 Y115.787 E0.67644
G1 X93.213 Y115.787 E0.11207
G1 X93.213 Y94.273 E0.67456
G1 X93.590 Y94.590 F10800.000
G1 F1200.000
G1 X96.410 Y94.590 E0.08842
G1 X96.410 Y115.410 E0.65280
G1 X93.590 Y115.410 E0.08842
G1 X93.590 Y94.650 E0.65092
G1 X93.572 Y94.190 F10800.000
G1 F8640.000
G1 X96.410 Y94.590 E-0.65129
G1 X96.410 Y95.061 E-0.10871
G1 E-0.04000 F2100.00000
G1 Z0.800 F10800.000
G1 X128.213 Y94.213
G1 Z0.200
G1 E0.80000 F2100.00000
G1 F1200.000
G1 X131.787 Y94.213 E0.11207
G1 X131.787 Y115.787 E0.67644
M73 Q1 S58
G1 X128.213 Y115.787 E0.11207
M73 P1 R58
G1 X128.213 Y94.273 E0.67456
G1 X128.590 Y94.590 F10800.000
G1 F1200.000
G1 X131.410 Y94.590 E0.08842
G1 X131.410 Y115.410 E0.65280
G1 X128.590 Y115.410 E0.08842
G1 X128.590 Y94.650 E0.65092
G1 X128.572 Y94.190 F10800.000
G1 F8640.000
G1 X131.410 Y94.590 E-0.65129
G1 X131.410 Y95.061 E-0.10871
G1 E-0.04000 F2100.00000
G1 Z0.800 F10800.000
G1 X133.213 Y94.213
G1 Z0.200
G1 E0.80000 F2100.00000
G1 F1200.000
G1 X136.787 Y94.213 E0.11207
G1 X136.787 Y115.787 E0.67644
G1 X133.213 Y115.787 E0.11207
G1 X133.213 Y94.273 E0.67456
G1 X133.590 Y94.590 F10800.000
G1 F1200.000
G1 X136.410 Y94.590 E0.08842
G1 X136.410 Y115.410 E0.65280
G1 X133.590 Y115.410 E0.08842
G1 X133.590 Y94.650 E0.65092
G1 X133.572 Y94.190 F10800.000
G1 F8640.000
G1 X136.410 Y94.590 E-0.65129
G1 X136.410 Y95.061 E-0.10871
G1 E-0.04000 F2100.00000
G1 Z0.800 F10800.000
G1 X138.213 Y94.213
G1 Z0.200
G1 E0.80000 F2100.00000
G1 F1200.000
G1 X141.787 Y94.213 E0.11207
G1 X141.787 Y115.787 E0.67644
G1 X138.213 Y115.787 E0.11207
G1 X138.213 Y94.273 E0.67456
G1 X138.590 Y94.590 F10800.000
G1 F1200.000
G1 X141.410 Y94.590 E0.08842
G1 X141.410 Y115.410 E0.65280
G1 X138.590 Y115.410 E0.08842
G1 X138.590 Y94.650 E0.65092
G1 X138.572 Y94.190 F10800.000
G1 F8640.000
G1 X141.410 Y94.590 E-0.65129
G1 X141.410 Y95.061 E-0.10871
G1 E-0.04000 F2100.00000
G1 Z0.800 F10800.000
G1 X143.213 Y94.213
G1 Z0.200
G1 E0.80000 F2100.00000
G1 F1200.000
G1 X146.787 Y94.213 E0.11207
G1 X146.787 Y115.787 E0.67644
G1 X143.213 Y115.787 E0.11207
G1 X143.213 Y94.273 E0.67456
G1 X143.590 Y94.590 F10800.000
G1 F1200.000
G1 X146.410 Y94.590 E0.08842
G1 X146.410 Y115.410 E0.65280
G1 X143.590 Y115.410 E0.08842
G1 X143.590 Y94.650 E0.65092
G1 X143.572 Y94.190 F10800.000
G1 F8640.000
G1 X146.410 Y94.590 E-0.65129
G1 X146.410 Y95.061 E-0.10871
G1 E-0.04000 F2100.00000
G1 Z0.800 F10800.000
G1 X148.213 Y94.213
G1 Z0.200
G1 E0.80000 F2100.00000
G1 F1200.000
G1 X151.787 Y94.213 E0.11207
G1 X151.787 Y115.787 E0.67644
G1 X148.213 Y115.787 E0.11207
G1 X148.213 Y94.273 E0.67456
G1 X148.590 Y94.590 F10800.000
G1 F1200.000
G1 X151.410 Y94.590 E0.08842
G1 X151.410 Y115.410 E0.65280
G1 X148.590 Y115.410 E0.08842
G1 X148.590 Y94.650 E0.65092
G1 X148.572 Y94.190 F10800.000
G1 F8640.000
G1 X151.410 Y94.590 E-0.65129
G1 X151.410 Y95.061 E-0.10871
G1 E-0.04000 F2100.00000
G1 Z0.800 F10800.000
G1 X153.213 Y94.213
G1 Z0.200
G1 E0.80000 F2100.00000
G1 F1200.000
G1 X156.787 Y94.213 E0.11207
G1 X156.787 Y115.787 E0.67644
G1 X153.213 Y115.787 E0.11207
G1 X153.213 Y94.273 E0.67456
G1 X153.590 Y94.590 F10800.000
G1 F1200.000
G1 X156.410 Y94.590 E0.08842
G1 X156.410 Y115.410 E0.65280
G1 X153.590 Y115.410 E0.08842
G1 X153.590 Y94.650 E0.65092
G1 X153.572 Y94.190 F10800.000
G1 F8640.000
G1 X156.410 Y94.590 E-0.65129
G1 X156.410 Y95.061 E-0.10871
G1 E-0.04000 F2100.00000
G1 Z0.800 F10800.000
G1 X174.213 Y80.787
G1 Z0.200
G1 E0.80000 F2100.00000
G1 F1200.000
G1 X174.213 Y129.213 E1.51836
G1 X75.787 Y129.213 E3.08607
G1 X75.787 Y80.787 E1.51836
G1 X174.153 Y80.787 E3.08419
G1 X174.590 Y80.410 F10800.000
G1 F1200.000
G1 X174.590 Y129.590 E1.54200
G1 X75.410 Y129.590 E3.10972
G1 X75.410 Y80.410 E1.54200
G1 X174.530 Y80.410 E3.10784
M73 Q3 S57
M73 P3 R57
G1 X174.445 Y80.783 F10800.000
G1 F8640.000
G1 X174.534 Y83.701 E-0.76000
G1 E-0.04000 F2100.00000
G1 Z0.800 F10800.000
G1 X174.100 Y81.664
G1 Z0.200
G1 E0.80000 F2100.00000
G1 F1200.000
G1 X173.505 Y81.070 E0.02643
G1 X172.971 Y81.070 E0.01680
G1 X173.930 Y82.029 E0.04265
G1 X173.930 Y82.564 E0.01680
G1 X172.436 Y81.070 E0.06641
G1 X171.902 Y81.070 E0.01680
G1 X173.930 Y83.098 E0.09017
G1 X173.930 Y83.633 E0.01680
G1 X171.367 Y81.070 E0.11393
G1 X170.832 Y81.070 E0.01680
G1 X173.930 Y84.168 E0.13770
G1 X173.930 Y84.702 E0.01680
G1 X170.298 Y81.070 E0.16146
G1 X169.763 Y81.070 E0.01680
G1 X173.930 Y85.237 E0.18522
G1 X173.930 Y85.771 E0.01680
G1 X169.229 Y81.070 E0.20898
G1 X168.694 Y81.070 E0.01680
G1 X173.930 Y86.306 E0.23275
G1 X173.930 Y86.841 E0.01680
G1 X168.159 Y81.070 E0.25651
G1 X167.625 Y81.070 E0.01680
G1 X173.930 Y87.375 E0.28027
G1 X173.930 Y87.910 E0.01680
G1 X167.090 Y81.070 E0.30403
G1 X166.556 Y81.070 E0.01680
G1 X173.930 Y88.444 E0.32779
G1 X173.930 Y88.979 E0.01680
G1 X166.021 Y81.070 E0.35156
G1 X165.487 Y81.070 E0.01680
G1 X173.930 Y89.513 E0.37532
G1 X173.930 Y90.048 E0.01680
G1 X164.952 Y81.070 E0.39908
G1 X164.417 Y81.070 E0.01680
G1 X173.930 Y90.583 E0.42284
G1 X173.930 Y91.117 E0.01680
G1 X163.883 Y81.070 E0.44660
G1 X163.348 Y81.070 E0.01680
G1 X173.930 Y91.652 E0.47037
G1 X173.930 Y92.186 E0.01680
G1 X162.814 Y81.070 E0.49413
G1 X162.279 Y81.070 E0.01680
G1 X173.930 Y92.721 E0.51789
G1 X173.930 Y93.255 E0.01680
G1 X161.745 Y81.070 E0.54165
G1 X161.210 Y81.070 E0.01680
G1 X173.930 Y93.790 E0.56542
G1 X173.930 Y94.325 E0.01680
G1 X160.675 Y81.070 E0.58918
G1 X160.141 Y81.070 E0.01680
G1 X173.930 Y94.859 E0.61294
G1 X173.930 Y95.394 E0.01680
G1 X159.606 Y81.070 E0.63670
G1 X159.072 Y81.070 E0.01680
G1 X173.930 Y95.928 E0.66046
G1 X173.930 Y96.463 E0.01680
G1 X158.537 Y81.070 E0.68423
G1 X158.002 Y81.070 E0.01680
G1 X173.930 Y96.998 E0.70799
G1 X173.930 Y97.532 E0.01680
G1 X157.468 Y81.070 E0.73175
G1 X156.933 Y81.070 E0.01680
G1 X173.930 Y98.067 E0.75551
G1 X173.930 Y98.601 E0.01680
G1 X156.399 Y81.070 E0.77928
G1 X155.864 Y81.070 E0.01680
G1 X173.930 Y99.136 E0.80304
G1 X173.930 Y99.670 E0.01680
G1 X155.330 Y81.070 E0.82680
G1 X154.795 Y81.070 E0.01680
G1 X173.930 Y100.205 E0.85056
G1 X173.930 Y100.740 E0.01680
G1 X154.260 Y81.070 E0.87432
G1 X153.726 Y81.070 E0.01680
G1 X173.930 Y101.274 E0.89809
G1 X173.930 Y101.809 E0.01680
G1 X153.191 Y81.070 E0.92185
G1 X152.657 Y81.070 E0.01680
G1 X173.930 Y102.343 E0.94561
G1 X173.930 Y102.878 E0.01680
G1 X152.122 Y81.070 E0.96937
G1 X151.588 Y81.070 E0.01680
G1 X173.930 Y103.412 E0.99314
G1 X173.930 Y103.947 E0.01680
G1 X151.053 Y81.070 E1.01690
G1 X150.518 Y81.070 E0.01680
G1 X173.930 Y104.482 E1.04066
G1 X173.930 Y105.016 E0.01680
G1 X149.984 Y81.070 E1.06442
G1 X149.449 Y81.070 E0.01680
G1 X173.930 Y105.551 E1.08818
G1 X173.930 Y106.085 E0.01680
G1 X148.915 Y81.070 E1.11195
G1 X148.380 Y81.070 E0.01680
G1 X173.930 Y106.620 E1.13571
G1 X173.930 Y107.154 E0.01680
G1 X147.845 Y81.070 E1.15947
G1 X147.311 Y81.070 E0.01680
G1 X173.930 Y107.689 E1.18323
G1 X173.930 Y108.224 E0.01680
G1 X146.776 Y81.070 E1.20700
G1 X146.242 Y81.070 E0.01680
G1 X173.930 Y108.758 E1.23076
G1 X173.930 Y109.293 E0.01680
G1 X145.707 Y81.070 E1.25452
G1 X145.173 Y81.070 E0.01680
G1 X173.930 Y109.827 E1.27828
G1 X173.930 Y110.362 E0.01680
G1 X144.638 Y81.070 E1.30204
M73 Q5 S56
M73 P5 R56
G1 X144.103 Y81.070 E0.01680
G1 X173.930 Y110.897 E1.32581
G1 X173.930 Y111.431 E0.01680
G1 X157.070 Y94.571 E0.74944
G1 X157.070 Y95.105 E0.01680
G1 X173.930 Y111.966 E0.74944
G1 X173.930 Y112.500 E0.01680
G1 X157.070 Y95.640 E0.74944
G1 X157.070 Y96.175 E0.01680
G1 X173.930 Y113.035 E0.74944
G1 X173.930 Y113.569 E0.01680
G1 X157.070 Y96.709 E0.74944
G1 X157.070 Y97.244 E0.01680
G1 X173.930 Y114.104 E0.74944
G1 X173.930 Y114.639 E0.01680
G1 X157.070 Y97.778 E0.74944
G1 X157.070 Y98.313 E0.01680
G1 X173.930 Y115.173 E0.74944
G1 X173.930 Y115.708 E0.01680
G1 X157.070 Y98.848 E0.74944
G1 X157.070 Y99.382 E0.01680
G1 X173.930 Y116.242 E0.74944
G1 X173.930 Y116.777 E0.01680
G1 X157.070 Y99.917 E0.74944
G1 X157.070 Y100.451 E0.01680
G1 X173.930 Y117.311 E0.74944
G1 X173.930 Y117.846 E0.01680
G1 X157.070 Y100.986 E0.74944
G1 X157.070 Y101.520 E0.01680
G1 X173.930 Y118.381 E0.74944
G1 X173.930 Y118.915 E0.01680
G1 X157.070 Y102.055 E0.74944
G1 X157.070 Y102.590 E0.01680
G1 X173.930 Y119.450 E0.74944
G1 X173.930 Y119.984 E0.01680
G1 X157.070 Y103.124 E0.74944
G1 X157.070 Y103.659 E0.01680
G1 X173.930 Y120.519 E0.74944
G1 X173.930 Y121.054 E0.01680
G1 X157.070 Y104.193 E0.74944
G1 X157.070 Y104.728 E0.01680
G1 X173.930 Y121.588 E0.74944
G1 X173.930 Y122.123 E0.01680
G1 X157.070 Y105.262 E0.74944
G1 X157.070 Y105.797 E0.01680
G1 X173.930 Y122.657 E0.74944
G1 X173.930 Y123.192 E0.01680
G1 X157.070 Y106.332 E0.74944
G1 X157.070 Y106.866 E0.01680
G1 X173.930 Y123.726 E0.74944
G1 X173.930 Y124.261 E0.01680
G1 X157.070 Y107.401 E0.74944
G1 X157.070 Y107.935 E0.01680
G1 X173.930 Y124.796 E0.74944
G1 X173.930 Y125.330 E0.01680
G1 X157.070 Y108.470 E0.74944
G1 X157.070 Y109.004 E0.01680
G1 X173.930 Y125.865 E0.74944
G1 X173.930 Y126.399 E0.01680
G1 X157.070 Y109.539 E0.74944
G1 X157.070 Y110.074 E0.01680
G1 X173.930 Y126.934 E0.74944
G1 X173.930 Y127.468 E0.01680
G1 X157.070 Y110.608 E0.74944
G1 X157.070 Y111.143 E0.01680
G1 X173.930 Y128.003 E0.74944
G1 X173.930 Y128.538 E0.01680
G1 X157.070 Y111.677 E0.74944
G1 X157.070 Y112.212 E0.01680
G1 X173.788 Y128.930 E0.74313
G1 X173.253 Y128.930 E0.01680
G1 X157.070 Y112.747 E0.71937
G1 X157.070 Y113.281 E0.01680
G1 X172.719 Y128.930 E0.69560
G1 X172.184 Y128.930 E0.01680
G1 X157.070 Y113.816 E0.67184
G1 X157.070 Y114.350 E0.01680
G1 X171.650 Y128.930 E0.64808
G1 X171.115 Y128.930 E0.01680
G1 X157.070 Y114.885 E0.62432
G1 X157.070 Y115.419 E0.01680
G1 X170.581 Y128.930 E0.60055
G1 X170.046 Y128.930 E0.01680
G1 X157.070 Y115.954 E0.57679
G1 X157.070 Y116.070 E0.00364
G1 X156.651 Y116.070 E0.01316
G1 X169.511 Y128.930 E0.57164
G1 X168.977 Y128.930 E0.01680
G1 X156.117 Y116.070 E0.57164
G1 X155.582 Y116.070 E0.01680
G1 X168.442 Y128.930 E0.57164
G1 X167.908 Y128.930 E0.01680
G1 X155.047 Y116.070 E0.57164
G1 X154.513 Y116.070 E0.01680
G1 X167.373 Y128.930 E0.57164
G1 X166.839 Y128.930 E0.01680
G1 X153.978 Y116.070 E0.57164
G1 X153.444 Y116.070 E0.01680
G1 X166.304 Y128.930 E0.57164
G1 X165.769 Y128.930 E0.01680
G1 X152.070 Y115.231 E0.60895
G1 X152.070 Y114.696 E0.01680
G1 X152.930 Y115.556 E0.03824
G1 X152.930 Y115.022 E0.01680
G1 X152.070 Y114.161 E0.03824
G1 X152.070 Y113.627 E0.01680
G1 X152.930 Y114.487 E0.03824
G1 X152.930 Y113.953 E0.01680
G1 X152.070 Y113.092 E0.03824
G1 X152.070 Y112.558 E0.01680
